X: 165
T: Mouse In The Mug, The
M: 6/8
L: 1/8
R: jig
K: G
"G"G2 G EGD | G2 G Bdg | fge dBG |"C" A2 A BAB |
"G"G2 G EGD | G2 G Bdg |"C" e2 e "G"dBG |"D" AGF "G"GBA |
G2 G EGD | G2 G Bdg | fge dBG |"C" A2 A BAB |
"G"G2 G EGD | G2 G Bdg |"C" e2 e dBG | AGF "G"GBd |
"G"gab agf |"D" fgd edB |"C" deg edB | AGA "G"BG/2B/2d |
gab agf |"D" fgd edB |"C" deg edB | AGF "G"GG/2B/2d |
gab agf |"D" fgd edB |"C" deg edB | AGA "G"BAB |
G2 G EGD | G2 G Bdg |"C" e2 e "G"dBG |"C" AGF "G"G3||
